X:127
%%pagewidth 10in
%%vocalfont Baskerville10Pro 14
T:Bara Faustus' Dream.
M:6/8
L:1/8
K:D
%%score 1 2
V:1 clef-treble
V:2 clef-bass octave=-1
V:1
!p![DF]2B[E^A]2[FB]|(c>B)^A[DB]3&Gx2x3|!f![Fd]2d[E^Ac]2c|(B>d)[G/(c/]B/) [C^A]F2&Fx2x3|
w:Come sweet Love, let sor-*row cease, Ban-ish frowns leave off* dis-sen-*tion.
V:2
B,3C2D|E2FB3|B,3C3|D2EF2E|
V:1
!p!F2B[E^A]2[DB]|(c>B)[F^A][FB]3&Cx2x3|!f![Gd]2[^Ed][Fc]2[Fc]|(B>d)[^E(c]/B/) [F^A]F2&Fx2x3||:!p![Gc]2[Fd][Ee]2[Gc]|
w:Love's war makes the sweet-*est peace, Hearts u-ni-ting by* con-*ten-tion, Sun-shine fol-lows
w:||||Af-ter sor-row
V:2
D3C2B,|^A,2F, D>CB,|B3^A2=A|^G2=GF3||:=A6&E2DC2A,|
V:1
[Fd]A2F3|[A,D]!<(!F2[DG]B2|[E^A][Fc]2!<)![FB]!>(!d2|[Gc]2B [CB]^A2|!>)![DB]6:||
w:af-ter rain, Sor-rows ceas-ing, This is pleas-ing, All proves fair a-gain.
w:cometh* joy, Trust me, prove me, try me, love me, This will care an-noy.
V:2
[DA]6|FD2BG2|c^A2dB2|E3F3|B,6:||

